cssgg/collage.svg

<svg
  width="24"
  height="24"
  viewBox="0 0 24 24"
  fill="none"
  xmlns="http://www.w3.org/2000/svg"
>
  <path
    fill-rule="evenodd"
    clip-rule="evenodd"
    d="M4 5C4 3.34315 5.34315 2 7 2H17C18.6569 2 20 3.34315 20 5V19C20 20.6569 18.6569 22 17 22H7C5.34315 22 4 20.6569 4 19V5ZM13 4H17C17.5523 4 18 4.44772 18 5V13H13V4ZM13 15V20H17C17.5523 20 18 19.5523 18 19V15H13ZM11 4H7C6.44771 4 6 4.44772 6 5V8H11V4ZM6 19V10H11V20H7C6.44772 20 6 19.5523 6 19Z"
    fill="currentColor"
  />
</svg>

<svg viewBox="0 0 24 24" xmlns="http://www.w3.org/2000/svg"><path fill-rule="evenodd" d="M4 5c0-1.66 1.34-3 3-3h10c1.65 0 3 1.34 3 3v14c0 1.65-1.35 3-3 3H7c-1.66 0-3-1.35-3-3V5Zm9-1h4c.55 0 1 .44 1 1v8h-5V4Zm0 11v5h4c.55 0 1-.45 1-1v-4h-5ZM11 4H7c-.56 0-1 .44-1 1v3h5V4ZM6 19v-9h5v10H7c-.56 0-1-.45-1-1Z"/></svg>
